X:113
T:Hornpipe TS.113
M:C|
L:1/8
Q:1/2=90
S:Thomas Sands’ MS,1810,Lincolnshire
R:.hornpipe
C:’Rowley Belt’
N:Nearly identical to TS.225
O:England;Lincolnshire
Z:vmp.Ruairidh Greig, 2011
K:F
(cB)|(A/B/c)F2F2(GA)|BABc BcdB|Acde fgaf|bagf edcB|
(AB/c/)F2F2 (GA)|BABc BcdB|Acfc dBGE|F2F2F2:|
|:(fg)|afdfr gece|defd cAFA|Bdfd cAGF|E2C2C3B,|
A,CFA, B,DGB,|CFAF DFBD|Acfc dBGE|F2F2F2:|]

